X:7498
T:the Young Man's Fancy
O:england
R:Hornpipe
M:4/4
N:Em version of "the Cuckoo's nest". Various versions exist
L:1/8
K:Em
BA |\
GFGE g2fe | dBAG c2BA | GFGE DEFD | d2A2 A2BA |\
GFGE g2fe | dBAG c2BA | GFGE DcBA | G2E2 E2 :|
|:B2 |\
e2e2 efgf | e2B2 B2Bc | d2d2 defe | d2A2 A2gf |\
edef g2fe | dBAG c2BA | GFGE DcBA | G2E2 E2 :|
|:GA | \
BGEG BGEG | BAGF E2FG | AFDF AFDF | AGFE D2GA |\
BGEG BGEG | BGFE g2fe | dBAG AcBA | G2E2 E2 :|


